X:20
T:Hey my Nanny
R:slip jig
C:traditional, highland pipe tune
B:Bremner's Collections, 1757
N:melodic code  633 632
Z:Paul Stewart Cranford (P.S.C.), <http://www.cranfordpub.com>
L:1/8
M:9/8
Q:333
K:Amix
Tf2 e cee cee|Tf2 e cee Bdd|Tf2 e cee cee|gfe dBG Bcd:|
|:fga eae cde|fga dgd Bcd|fga eae cde|gfe dBG Bcd:|
